ic16/ic16__mute.svg

<svg fill="none" height="16" width="16" xmlns="http://www.w3.org/2000/svg" xmlns:xlink="http://www.w3.org/1999/xlink"><clipPath id="a"><path d="m0 0h16v16h-16z"/></clipPath><g clip-path="url(#a)"><path clip-rule="evenodd" d="m8 2.75a.75.75 0 0 0 -1.238-.57l-3.29 2.82h-1.722a1.75 1.75 0 0 0 -1.75 1.75v2.5c0 .966.784 1.75 1.75 1.75h1.723l3.289 2.82a.75.75 0 0 0 1.238-.57zm-3.762 3.57 2.262-1.94v7.24l-2.262-1.94a.75.75 0 0 0 -.488-.18h-2a.25.25 0 0 1 -.25-.25v-2.5a.25.25 0 0 1 .25-.25h2a.75.75 0 0 0 .488-.18zm7.042-1.1a.75.75 0 1 0 -1.06 1.06l1.72 1.72-1.72 1.72a.75.75 0 1 0 1.06 1.06l1.72-1.72 1.72 1.72a.75.75 0 1 0 1.06-1.06l-1.72-1.72 1.72-1.72a.75.75 0 0 0 -1.06-1.06l-1.72 1.72z" fill-rule="evenodd"/></g></svg>

<svg width="16" height="16" fill="none" xmlns="http://www.w3.org/2000/svg">
  <g clip-path="url(#ic16__mute__clip0)">
    <path fill-rule="evenodd" clip-rule="evenodd" d="M8 2.75a.75.75 0 00-1.238-.57L3.472 5H1.75A1.75 1.75 0 000 6.75v2.5C0 10.216.784 11 1.75 11h1.723l3.289 2.82A.75.75 0 008 13.25V2.75zM4.238 6.32L6.5 4.38v7.24L4.238 9.68a.75.75 0 00-.488-.18h-2a.25.25 0 01-.25-.25v-2.5a.25.25 0 01.25-.25h2a.75.75 0 00.488-.18zm7.042-1.1a.75.75 0 10-1.06 1.06L11.94 8l-1.72 1.72a.75.75 0 101.06 1.06L13 9.06l1.72 1.72a.75.75 0 101.06-1.06L14.06 8l1.72-1.72a.75.75 0 00-1.06-1.06L13 6.94l-1.72-1.72z" />
  </g>
  <defs>
    <clipPath id="ic16__mute__clip0">
      <path  d="M0 0h16v16H0z"/>
    </clipPath>
  </defs>
</svg>
